X:132
T: Der Knab von Haselach (2-34) S. 108
N: P0907
O: Lothringen
S: PINCK, Louis: Verklingende Weisen, Bd 2, Metz 1928]
R: ???]
M: 2/4
L: 1/16
K: F
CCF | F2GBA2G2 | F2
FGA2AB | c2c2A2GA | B2A2G2z2
c4G2A2 | E2F2G2B2 | AGF
FE2F2 | G2BGA2G2 | F4z

